X: 193
T: Bill Cooper's Waltz
B: australian dance tunes
M:3/4
L:1/8
R: Waltz
Q: 1/4=100
K:D
V:1 
B2|F2 A2 A2|B2 A2 A2|F2 A2 d2|f4 ef|g2 e2 c2|1A2 c2 e2|g2 f2 e2|f4:|2A2
B2 c2|d6-|d4 a2||!
b2 a2 f2|A2 d2 f2|a2 g2 f2|g4 ef|g2 e2 c2|1A2 c2 e2|g2 f2 e2|f4 bb:|2A2
B2 c2|d6-|d4|| 
% abcbook-tune_id 62a07850442adc6b681462c7


% abcbook-boost 0
% abcbook-tablature 
% abcbook-transpose 
% abcbook-lastupdated 1654683750273
% abcbook-soundfonts 
% abcbook-repeats 1


